; generated by Slic3r 1.2.7-dev on 2015-04-24 at 10:52:00

; external perimeters extrusion width = 0.40mm
; perimeters extrusion width = 0.67mm
; infill extrusion width = 0.67mm
; solid infill extrusion width = 0.67mm
; top infill extrusion width = 0.67mm

M107
M190 S60 ; set bed temperature
M104 S215 ; set temperature
G28 ; home all axes
G92 E0.0 ; reset extruder
M109 S215 ; wait for temperature to be reached
G21 ; set units to millimeters
G90 ; use absolute coordinates
M83 ; use relative distances for extrusion
G1 E-1.30000 F3600.00000
G1 Z0.300 F7800.000
G1 X74.418 Y74.418 F7800.000
G1 E1.30000 F3600.00000
M204 S500
G1 X81.490 Y67.347 E0.67576 F2160.000
G1 X83.800 Y65.600 E0.19572
G1 X86.498 Y64.548 E0.19572
G1 X89.381 Y64.271 E0.19572
G1 X92.231 Y64.789 E0.19572
G1 X94.832 Y66.063 E0.19572 F2160.000
G1 X96.389 Y67.347 E0.13642
G1 X112.653 Y83.611 E1.55424
G1 X114.400 Y85.921 E0.19572
G1 X115.452 Y88.619 E0.19572
G1 X115.729 Y91.502 E0.19572
G1 X115.211 Y94.352 E0.19572
G1 X113.937 Y96.953 E0.19572
G1 X112.653 Y98.511 E0.13642
G1 X98.511 Y112.653 E1.35151
G1 X96.200 Y114.400 E0.19572
G1 X93.502 Y115.452 E0.19572
G1 X90.619 Y115.729 E0.19572
G1 X87.769 Y115.211 E0.19572
G1 X85.169 Y113.937 E0.19572
G1 X83.611 Y112.653 E0.13642
G1 X67.347 Y96.389 E1.55424
G1 X65.600 Y94.079 E0.19572
G1 X64.548 Y91.381 E0.19572
G1 X64.271 Y88.498 E0.19572
G1 X64.789 Y85.648 E0.19572
G1 X66.063 Y83.047 E0.19572
G1 X67.347 Y81.490 E0.13642
G1 X74.376 Y74.461 E0.67170
G1 X75.619 Y75.619 F7800.000
G1 X85.279 Y65.959 E0.92313 F2160.000
G1 X92.600 Y65.959 E0.49475
G1 X114.041 Y87.400 E2.04898 F2160.000
G1 X114.040 Y94.721 E0.49475
G1 X94.721 Y114.041 E1.84625
G1 X87.400 Y114.041 E0.49475
G1 X65.959 Y92.600 E2.04898
G1 X65.959 Y85.279 E0.49475
G1 X75.577 Y75.662 E0.91908
G1 X75.998 Y75.998 F7800.000
G1 X85.501 Y66.495 E0.90814 F2160.000
G1 X92.378 Y66.495 E0.46476 F2160.000
G1 X113.505 Y87.622 E2.01900
G1 X113.505 Y94.500 E0.46477
G1 X94.500 Y113.505 E1.81627
G1 X87.622 Y113.505 E0.46476
G1 X66.495 Y92.378 E2.01900
G1 X66.495 Y85.501 E0.46476
G1 X75.955 Y76.040 E0.90408
G1 X76.377 Y76.377 F7800.000
G1 X85.722 Y67.031 E0.89315 F2160.000
G1 X92.156 Y67.031 E0.43478
G1 X112.969 Y87.844 E1.98901 F2160.000
G1 X112.969 Y94.278 E0.43478
G1 X94.278 Y112.969 E1.78628
G1 X87.844 Y112.969 E0.43478
G1 X67.031 Y92.156 E1.98901
G1 X67.031 Y85.722 E0.43478
G1 X76.334 Y76.419 E0.88909
G1 X76.755 Y76.755 F7800.000
G1 X85.944 Y67.566 E0.87816 F2160.000
G1 X91.935 Y67.566 E0.40479 F2160.000
G1 X112.434 Y88.066 E1.95903
G1 X112.434 Y94.056 E0.40480
G1 X94.056 Y112.434 E1.75630
G1 X88.066 Y112.434 E0.40479
G1 X67.566 Y91.935 E1.95903
G1 X67.566 Y85.944 E0.40479
G1 X76.713 Y76.798 E0.87410
G1 X77.134 Y77.134 F7800.000
G1 X86.166 Y68.102 E0.86316 F2160.000
G1 X91.713 Y68.102 E0.37481
G1 X111.898 Y88.287 E1.92905 F2160.000
G1 X111.898 Y93.834 E0.37481
G1 X93.834 Y111.898 E1.72631
G1 X88.287 Y111.898 E0.37481
G1 X68.102 Y91.713 E1.92904
G1 X68.102 Y86.166 E0.37481
G1 X77.092 Y77.176 E0.85911
G1 X77.513 Y77.513 F7800.000
G1 X86.388 Y68.638 E0.84817 F2160.000
G1 X91.491 Y68.638 E0.34482 F2160.000
G1 X111.362 Y88.509 E1.89906
G1 X111.362 Y93.612 E0.34483
G1 X93.612 Y111.362 E1.69633
G1 X88.509 Y111.362 E0.34482
G1 X68.638 Y91.491 E1.89906
G1 X68.638 Y86.388 E0.34482
G1 X77.470 Y77.555 E0.84412
G1 X77.892 Y77.892 F7800.000
G1 X86.610 Y69.173 E0.83318 F2160.000
G1 X91.269 Y69.173 E0.31484
G1 X110.827 Y88.731 E1.86908 F2160.000
G1 X110.827 Y93.390 E0.31484
G1 X93.390 Y110.827 E1.66634
G1 X88.731 Y110.827 E0.31484
G1 X69.173 Y91.269 E1.86908
G1 X69.173 Y86.610 E0.31484
G1 X77.849 Y77.934 E0.82912
G1 X78.270 Y78.270 F7800.000
G1 X86.832 Y69.709 E0.81819 F2160.000
G1 X91.047 Y69.709 E0.28485 F2160.000
G1 X110.291 Y88.953 E1.83909
G1 X110.291 Y93.168 E0.28486
G1 X93.168 Y110.291 E1.63636
G1 X88.953 Y110.291 E0.28485
G1 X69.709 Y91.047 E1.83909
G1 X69.709 Y86.832 E0.28486
G1 X78.228 Y78.313 E0.81413
G1 X78.649 Y78.649 F7800.000
G1 X87.054 Y70.244 E0.80319 F2160.000
G1 X90.825 Y70.244 E0.25487
G1 X109.756 Y89.175 E1.80911 F2160.000
G1 X109.756 Y92.947 E0.25487
G1 X92.947 Y109.756 E1.60637
G1 X89.175 Y109.756 E0.25487
G1 X70.244 Y90.825 E1.80911
G1 X70.244 Y87.054 E0.25487
G1 X78.607 Y78.691 E0.79914
G1 X79.028 Y79.028 F7800.000
G1 X87.275 Y70.780 E0.78820 F2160.000
G1 X90.603 Y70.780 E0.22488 F2160.000
G1 X109.220 Y89.397 E1.77912
G1 X109.220 Y92.725 E0.22489
G1 X92.725 Y109.220 E1.57639
G1 X89.397 Y109.220 E0.22489
G1 X70.780 Y90.603 E1.77912
G1 X70.780 Y87.275 E0.22489
G1 X78.985 Y79.070 E0.78415
G1 X79.406 Y79.406 F7800.000
G1 X87.497 Y71.316 E0.77321 F2160.000
G1 X90.381 Y71.316 E0.19490
G1 X108.684 Y89.619 E1.74914 F2160.000
G1 X108.684 Y92.503 E0.19490
G1 X92.503 Y108.684 E1.54641
G1 X89.619 Y108.684 E0.19490
G1 X71.316 Y90.381 E1.74914
G1 X71.316 Y87.497 E0.19490
G1 X79.364 Y79.449 E0.76915
G1 X79.785 Y79.785 F7800.000
G1 X87.719 Y71.851 E0.75822 F2160.000
G1 X90.160 Y71.851 E0.16492 F2160.000
G1 X108.149 Y89.840 E1.71915
G1 X108.149 Y92.281 E0.16492
G1 X92.281 Y108.149 E1.51642
G1 X89.840 Y108.149 E0.16492
G1 X71.851 Y90.160 E1.71915
G1 X71.851 Y87.719 E0.16492
G1 X79.743 Y79.828 E0.75416
G1 X80.164 Y80.164 F7800.000
G1 X87.941 Y72.387 E0.74322 F2160.000
G1 X89.938 Y72.387 E0.13493
G1 X107.613 Y90.062 E1.68917 F2160.000
G1 X107.613 Y92.059 E0.13493
G1 X92.059 Y107.613 E1.48644
G1 X90.062 Y107.613 E0.13493
G1 X72.387 Y89.938 E1.68917
G1 X72.387 Y87.941 E0.13493
G1 X80.122 Y80.206 E0.73917
G1 X80.543 Y80.543 F7800.000
G1 X88.163 Y72.923 E0.72823 F2160.000
G1 X89.716 Y72.923 E0.10495 F2160.000
G1 X107.077 Y90.284 E1.65918
G1 X107.077 Y91.837 E0.10495
G1 X91.837 Y107.077 E1.45645
G1 X90.284 Y107.077 E0.10495
G1 X72.923 Y89.716 E1.65918
G1 X72.923 Y88.163 E0.10495
G1 X80.500 Y80.585 E0.72418
G1 X80.921 Y80.921 F7800.000
G1 X88.385 Y73.458 E0.71324 F2160.000
G1 X89.494 Y73.458 E0.07496
G1 X106.542 Y90.506 E1.62920 F2160.000
G1 X106.542 Y91.615 E0.07496
G1 X91.615 Y106.542 E1.42647
G1 X90.506 Y106.542 E0.07496
G1 X73.458 Y89.494 E1.62920
G1 X73.458 Y88.385 E0.07496
G1 X80.879 Y80.964 E0.70918
G1 X81.300 Y81.300 F7800.000
G1 X88.607 Y73.994 E0.69825 F2160.000
G1 X89.272 Y73.994 E0.04498 F2160.000
G1 X106.006 Y90.728 E1.59921
G1 X106.006 Y91.393 E0.04498
G1 X91.393 Y106.006 E1.39648
G1 X90.728 Y106.006 E0.04498
G1 X73.994 Y89.272 E1.59921
G1 X73.994 Y88.607 E0.04498
G1 X81.258 Y81.343 E0.69419
G1 F6240
G1 X82.851 Y79.749 E-1.23500
G1 E-0.06500 F3600.00000
G1 X74.529 Y88.828 F7800.000
G1 E1.30000 F3600.00000
G1 X88.828 Y74.529 E1.36651 F2160.000
G1 X89.050 Y74.529 E0.01499
G1 X105.471 Y90.950 E1.56923
G1 X105.471 Y91.172 E0.01499
G1 X91.172 Y105.471 E1.36650
G1 X90.950 Y105.471 E0.01499
G1 X74.529 Y89.050 E1.56923
G1 X74.529 Y88.888 E0.01094
G1 F6240
G1 X76.119 Y87.292 E-1.23500
G1 E-0.06500 F3600.00000
G1 X91.061 Y104.779 F7800.000
G1 E1.30000 F3600.00000
G1 X75.221 Y88.939 E1.51369 F1458.000
G1 X88.939 Y75.221 E1.31097
G1 X104.779 Y91.061 E1.51369
G1 X91.103 Y104.736 E1.30691
G1 X91.061 Y93.214 F7800.000
G1 X90.394 Y93.109 E0.04563 F1080.000
G1 X89.782 Y92.790 E0.04665
G1 X89.318 Y92.327 E0.04427
G1 X89.012 Y91.726 E0.04553
G1 X88.907 Y91.061 E0.04554
G1 X89.012 Y90.395 E0.04553
G1 X89.318 Y89.795 E0.04553
G1 X89.795 Y89.318 E0.04554
G1 X90.395 Y89.012 E0.04553
G1 X91.042 Y88.910 E0.04427 F1080.000
G1 X91.725 Y89.012 E0.04665
G1 X92.327 Y89.318 E0.04563
G1 X92.803 Y89.795 E0.04554
G1 X93.109 Y90.395 E0.04553
G1 X93.214 Y91.061 E0.04553
G1 X93.109 Y91.726 E0.04553
G1 X92.803 Y92.327 E0.04553
G1 X92.327 Y92.803 E0.04554
G1 X91.726 Y93.109 E0.04553
G1 X91.120 Y93.205 E0.04148
G1 X91.184 Y93.494 F7800.000
G1 X96.563 Y98.873 E0.52244 F1980.000
G1 X96.948 Y98.488 E0.03739
G1 X91.825 Y93.365 E0.49761
G1 X92.335 Y93.105 E0.03931
G1 X97.333 Y98.103 E0.48546
G1 X97.718 Y97.718 E0.03739
G1 X92.752 Y92.752 E0.48234
G1 X93.105 Y92.335 E0.03752
G1 X98.103 Y97.333 E0.48546
G1 X98.488 Y96.948 E0.03739
G1 X93.365 Y91.825 E0.49761
G1 X93.494 Y91.185 E0.04488
G1 X98.873 Y96.563 E0.52244
G1 X99.258 Y96.178 E0.03739
G1 X93.439 Y90.359 E0.56522
G1 F6240
G1 X95.032 Y91.952 E-1.23500
G1 E-0.06500 F3600.00000
G1 X90.359 Y93.439 F7800.000
G1 E1.30000 F3600.00000
G1 X96.178 Y99.258 E0.56522 F1980.000
G1 X95.793 Y99.643 E0.03739
G1 X80.357 Y84.207 E1.49931
G1 X79.972 Y84.591 E0.03739
G1 X95.409 Y100.028 E1.49931
G1 X95.024 Y100.413 E0.03739
G1 X79.587 Y84.976 E1.49931
G1 X79.202 Y85.361 E0.03739
G1 X94.639 Y100.798 E1.49931
G1 X94.254 Y101.183 E0.03739
G1 X78.817 Y85.746 E1.49931
G1 X78.433 Y86.131 E0.03739
G1 X93.869 Y101.567 E1.49931
G1 X93.484 Y101.952 E0.03739
G1 X78.048 Y86.516 E1.49931
G1 X77.663 Y86.901 E0.03739
G1 X93.099 Y102.337 E1.49931
G1 X92.714 Y102.722 E0.03739
G1 X77.278 Y87.286 E1.49931
G1 X76.893 Y87.671 E0.03739
G1 X92.329 Y103.107 E1.49931
G1 X91.944 Y103.492 E0.03739
G1 X76.508 Y88.056 E1.49931
G1 X76.123 Y88.441 E0.03739
G1 X91.559 Y103.877 E1.49931
G1 X91.174 Y104.262 E0.03739
G1 X75.738 Y88.826 E1.49931
G1 X88.683 Y91.762 F7800.000
G1 X80.742 Y83.822 E0.77127 F1980.000
G1 X81.127 Y83.437 E0.03739
G1 X88.627 Y90.937 E0.72849
G1 X88.757 Y90.296 E0.04488
G1 X81.512 Y83.052 E0.70366
G1 X81.897 Y82.667 E0.03739
G1 X89.016 Y89.786 E0.69151
G1 X89.369 Y89.369 E0.03752
G1 X82.282 Y82.282 E0.68838
G1 X82.667 Y81.897 E0.03739
G1 X89.786 Y89.016 E0.69151
G1 X90.296 Y88.757 E0.03931
G1 X83.052 Y81.512 E0.70366
G1 X83.437 Y81.127 E0.03739
G1 X90.937 Y88.627 E0.72849
G1 X91.763 Y88.684 E0.05689
G1 X83.822 Y80.742 E0.77137
G1 X84.207 Y80.357 E0.03739
G1 X99.643 Y95.793 E1.49931
G1 X100.028 Y95.409 E0.03739
G1 X84.591 Y79.972 E1.49931
G1 X84.976 Y79.587 E0.03739
G1 X100.413 Y95.024 E1.49931
G1 X100.798 Y94.639 E0.03739
G1 X85.361 Y79.202 E1.49931
G1 X85.746 Y78.817 E0.03739
G1 X101.183 Y94.254 E1.49931
G1 X101.567 Y93.869 E0.03739
G1 X86.131 Y78.433 E1.49931
G1 X86.516 Y78.048 E0.03739
G1 X101.952 Y93.484 E1.49931
G1 X102.337 Y93.099 E0.03739
G1 X86.901 Y77.663 E1.49931
G1 X87.286 Y77.278 E0.03739
G1 X102.722 Y92.714 E1.49931
G1 X103.107 Y92.329 E0.03739
G1 X87.671 Y76.893 E1.49931
G1 X88.056 Y76.508 E0.03739
G1 X103.492 Y91.944 E1.49931
G1 X103.877 Y91.559 E0.03739
G1 X88.441 Y76.123 E1.49931
G1 X88.826 Y75.738 E0.03739
G1 X104.262 Y91.174 E1.49931
M106 S255
M104 S210 ; set temperature
M140 S50 ; wait for bed temperature to be reached
G1 F6240
G1 X102.669 Y89.581 E-1.23500
G1 E-0.06500 F3600.00000
G1 Z0.500 F7800.000
G1 X91.061 Y93.113 F7800.000
G1 E1.30000 F3600.00000
G1 X90.426 Y93.013 E0.01929 F1317.685
G1 X89.854 Y92.721 E0.01929
G1 X89.400 Y92.267 E0.01929
G1 X89.109 Y91.695 E0.01929
G1 X89.008 Y91.061 E0.01929
G1 X89.109 Y90.426 E0.01929
G1 X89.400 Y89.854 E0.01929
G1 X89.854 Y89.400 E0.01929
G1 X90.426 Y89.109 E0.01929 F1317.685
G1 X91.061 Y89.008 E0.01929
G1 X91.695 Y89.109 E0.01929
G1 X92.267 Y89.400 E0.01929
G1 X92.721 Y89.854 E0.01929
G1 X93.013 Y90.426 E0.01929
G1 X93.113 Y91.061 E0.01929
G1 X93.013 Y91.695 E0.01929
G1 X92.721 Y92.267 E0.01929
G1 X92.267 Y92.721 E0.01929
G1 X91.695 Y93.013 E0.01929
G1 X91.120 Y93.104 E0.01748
G1 X91.061 Y104.920 F7800.000
G1 X75.080 Y88.939 E0.67876 F1778.874
G1 X88.939 Y75.080 E0.58866
G1 X104.920 Y91.061 E0.67876
G1 X91.103 Y104.878 E0.58685
G1 X90.927 Y104.403 F7800.000
G1 X104.403 Y90.927 E1.02210 F2415.755
G1 X103.952 Y90.476 E0.03420
G1 X90.476 Y103.952 E1.02210
G1 X90.026 Y103.501 E0.03420
G1 X103.501 Y90.026 E1.02210
G1 X103.050 Y89.575 E0.03420
G1 X89.575 Y103.050 E1.02210
G1 X89.124 Y102.599 E0.03420
G1 X102.599 Y89.124 E1.02210
G1 X102.149 Y88.673 E0.03420
G1 X88.673 Y102.149 E1.02210
G1 X88.222 Y101.698 E0.03420
G1 X101.698 Y88.222 E1.02210
G1 X101.247 Y87.771 E0.03420
G1 X87.771 Y101.247 E1.02210
G1 X87.320 Y100.796 E0.03420
G1 X100.796 Y87.320 E1.02210
G1 X100.345 Y86.869 E0.03420
G1 X86.869 Y100.345 E1.02210
G1 X86.418 Y99.894 E0.03420
G1 X99.894 Y86.418 E1.02210
G1 X99.443 Y85.968 E0.03420
G1 X93.155 Y92.255 E0.47691
G1 X93.410 Y91.099 E0.06351
G1 X98.992 Y85.517 E0.42340
G1 X98.541 Y85.066 E0.03420
G1 X93.263 Y90.344 E0.40035
G1 X92.959 Y89.747 E0.03596
G1 X98.091 Y84.615 E0.38924
G1 X97.640 Y84.164 E0.03420
G1 X92.513 Y89.291 E0.38885
G1 X91.954 Y88.948 E0.03517
G1 X97.189 Y83.713 E0.39707
G1 X96.738 Y83.262 E0.03420
G1 X91.252 Y88.748 E0.41606
G1 X90.303 Y88.795 E0.05097
G1 X96.287 Y82.811 E0.45386
G1 X95.836 Y82.360 E0.03420
G1 X82.360 Y95.836 E1.02210
G1 X82.811 Y96.287 E0.03420
G1 X88.795 Y90.303 E0.45386
G1 X88.748 Y91.252 E0.05097
G1 X83.262 Y96.738 E0.41606
G1 X83.713 Y97.189 E0.03420
G1 X88.948 Y91.954 E0.39707
G1 X89.291 Y92.513 E0.03517
G1 X84.164 Y97.640 E0.38885
G1 X84.615 Y98.091 E0.03420
G1 X89.747 Y92.959 E0.38924
G1 X90.344 Y93.263 E0.03596
G1 X85.066 Y98.541 E0.40035
G1 X85.517 Y98.992 E0.03420
G1 X91.099 Y93.410 E0.42340
G1 X92.255 Y93.155 E0.06351
G1 X85.968 Y99.443 E0.47691
G1 X81.910 Y95.385 F7800.000
G1 X95.385 Y81.910 E1.02210 F2415.755
G1 X94.934 Y81.459 E0.03420
G1 X81.459 Y94.934 E1.02210
G1 X81.008 Y94.483 E0.03420
G1 X94.483 Y81.008 E1.02210
G1 X94.032 Y80.557 E0.03420
G1 X80.557 Y94.032 E1.02210
G1 X80.106 Y93.582 E0.03420
G1 X93.582 Y80.106 E1.02210
G1 X93.131 Y79.655 E0.03420
G1 X79.655 Y93.131 E1.02210
G1 X79.204 Y92.680 E0.03420
G1 X92.680 Y79.204 E1.02210
G1 X92.229 Y78.753 E0.03420
G1 X78.753 Y92.229 E1.02210
G1 X78.302 Y91.778 E0.03420
G1 X91.778 Y78.302 E1.02210
G1 X91.327 Y77.851 E0.03420
G1 X77.851 Y91.327 E1.02210
G1 X77.401 Y90.876 E0.03420
G1 X90.876 Y77.401 E1.02210
G1 X90.425 Y76.950 E0.03420
G1 X76.950 Y90.425 E1.02210
G1 X76.499 Y89.974 E0.03420
G1 X89.974 Y76.499 E1.02210
G1 X89.524 Y76.048 E0.03420
G1 X76.048 Y89.524 E1.02210
G1 X75.597 Y89.073 E0.03420
G1 X89.073 Y75.597 E1.02210
G1 F6240
G1 X87.479 Y77.190 E-1.23500
G1 E-0.06500 F3600.00000
G1 Z0.700 F7800.000
G1 X91.061 Y93.113 F7800.000
G1 E1.30000 F3600.00000
G1 X90.426 Y93.013 E0.01929 F1304.120
G1 X89.854 Y92.721 E0.01929
G1 X89.400 Y92.267 E0.01929
G1 X89.109 Y91.695 E0.01929
G1 X89.008 Y91.061 E0.01929
G1 X89.109 Y90.426 E0.01929
G1 X89.400 Y89.854 E0.01929
G1 X89.854 Y89.400 E0.01929
G1 X90.426 Y89.109 E0.01929
G1 X90.961 Y89.024 E0.01625
G1 X91.061 Y89.008 E0.00304 F1304.120
G1 X91.695 Y89.109 E0.01929
G1 X92.267 Y89.400 E0.01929
G1 X92.721 Y89.854 E0.01929
G1 X93.013 Y90.426 E0.01929
G1 X93.113 Y91.060 E0.01927
G1 X93.018 Y91.684 E0.01894
G1 X92.721 Y92.267 E0.01967
G1 X92.267 Y92.721 E0.01929
G1 X91.695 Y93.013 E0.01929
G1 X91.120 Y93.104 E0.01748
G1 X91.061 Y104.920 F7800.000
G1 X75.080 Y88.939 E0.67876 F1760.563
G1 X88.939 Y75.080 E0.58866
G1 X104.920 Y91.061 E0.67876
G1 X91.103 Y104.878 E0.58685
G1 X91.194 Y104.403 F7800.000
G1 X75.597 Y88.806 E1.19505 F2390.887
G1 X76.052 Y88.351 E0.03490
G1 X91.649 Y103.948 E1.19505
G1 X92.105 Y103.492 E0.03490
G1 X76.508 Y87.895 E1.19505
G1 X76.963 Y87.440 E0.03490
G1 X92.560 Y103.037 E1.19505
G1 X93.016 Y102.581 E0.03490
G1 X77.419 Y86.984 E1.19505
G1 X77.874 Y86.529 E0.03490
G1 X93.471 Y102.126 E1.19505
G1 X93.927 Y101.670 E0.03490
G1 X78.330 Y86.073 E1.19505
G1 X78.785 Y85.618 E0.03490
G1 X94.382 Y101.215 E1.19505
G1 X94.838 Y100.759 E0.03490
G1 X79.241 Y85.162 E1.19505
G1 X79.696 Y84.707 E0.03490
G1 X95.293 Y100.304 E1.19505
G1 X95.749 Y99.848 E0.03490
G1 X80.152 Y84.251 E1.19505
G1 X80.607 Y83.796 E0.03490
G1 X88.861 Y92.049 E0.63241
G1 X88.726 Y91.004 E0.05712
G1 X81.063 Y83.340 E0.58718
G1 X81.518 Y82.885 E0.03490
G1 X88.899 Y90.265 E0.56548
G1 X89.222 Y89.677 E0.03634
G1 X81.974 Y82.429 E0.55535
G1 X82.429 Y81.974 E0.03490
G1 X89.677 Y89.222 E0.55535
G1 X90.265 Y88.899 E0.03634
G1 X82.885 Y81.518 E0.56548
G1 X83.340 Y81.063 E0.03490
G1 X91.004 Y88.726 E0.58718
G1 X92.049 Y88.861 E0.05712
G1 X83.796 Y80.607 E0.63241
G1 X84.251 Y80.152 E0.03490
G1 X99.848 Y95.749 E1.19505
G1 X100.304 Y95.293 E0.03490
G1 X84.707 Y79.696 E1.19505
G1 X85.162 Y79.241 E0.03490
G1 X100.759 Y94.838 E1.19505
G1 X101.215 Y94.382 E0.03490
G1 X85.618 Y78.785 E1.19505
G1 X86.073 Y78.330 E0.03490
G1 X101.670 Y93.927 E1.19505
G1 X102.126 Y93.471 E0.03490
G1 X86.529 Y77.874 E1.19505
G1 X86.984 Y77.419 E0.03490
G1 X102.581 Y93.016 E1.19505
G1 X103.037 Y92.560 E0.03490
