; generated by Slic3r 1.2.7-dev on 2015-04-24 at 10:52:27

; external perimeters extrusion width = 0.40mm
; perimeters extrusion width = 0.67mm
; infill extrusion width = 0.67mm
; solid infill extrusion width = 0.67mm
; top infill extrusion width = 0.67mm

M107
M190 S60 ; set bed temperature
M104 S215 ; set temperature
G28 ; home all axes
G92 E0.0 ; reset extruder
M109 S215 ; wait for temperature to be reached
G21 ; set units to millimeters
G90 ; use absolute coordinates
M83 ; use relative distances for extrusion
G1 E-1.30000 F3600.00000
G1 Z0.300 F7800.000
G1 X75.479 Y75.479 F7800.000
G1 E1.30000 F3600.00000
M204 S500
G1 X82.550 Y68.408 E0.67578 F2160.000
G1 X84.860 Y66.661 E0.19572
G1 X87.559 Y65.609 E0.19572
G1 X90.442 Y65.331 E0.19572
G1 X93.291 Y65.850 E0.19572
G1 X95.892 Y67.124 E0.19572 F2160.000
G1 X97.450 Y68.408 E0.13641
G1 X111.592 Y82.550 E1.35151
G1 X113.339 Y84.860 E0.19572
G1 X114.391 Y87.559 E0.19572
G1 X114.669 Y90.442 E0.19572
G1 X114.150 Y93.291 E0.19572
G1 X112.876 Y95.892 E0.19572
G1 X111.592 Y97.450 E0.13642
G1 X97.450 Y111.592 E1.35151
G1 X95.140 Y113.339 E0.19572
G1 X92.441 Y114.391 E0.19572
G1 X89.558 Y114.669 E0.19572
G1 X86.709 Y114.150 E0.19572
G1 X84.108 Y112.876 E0.19572
G1 X82.550 Y111.592 E0.13642
G1 X68.408 Y97.450 E1.35152
G1 X66.661 Y95.140 E0.19572
G1 X65.609 Y92.441 E0.19572
G1 X65.331 Y89.558 E0.19572
G1 X65.850 Y86.709 E0.19572
G1 X67.124 Y84.108 E0.19572
G1 X68.408 Y82.550 E0.13640
G1 X75.437 Y75.522 E0.67170
G1 F6240
G1 X77.030 Y73.928 E-1.23500
G1 E-0.06500 F3600.00000
G1 X87.926 Y65.433 F7800.000
G1 E1.30000 F3600.00000
G1 X98.838 Y69.953 E0.79809 F2160.000
G1 X98.838 Y80.848 E0.73629
G1 X99.152 Y81.162 E0.02998
G1 X110.047 Y81.162 E0.73629
G1 X114.567 Y92.074 E0.79809
G1 X93.661 Y112.980 E1.99791
G1 X86.339 Y112.980 E0.49476
G1 X67.020 Y93.661 E1.84627
G1 X67.020 Y86.339 E0.49474
G1 X87.884 Y65.475 E1.99389
G1 X88.052 Y66.065 F7800.000
G1 X98.302 Y70.311 E0.74972 F2160.000
G1 X98.302 Y81.384 E0.74830
G1 X98.616 Y81.698 E0.02998
G1 X109.689 Y81.698 E0.74830
G1 X113.935 Y91.948 E0.74972
G1 X93.439 Y112.444 E1.95873
G1 X86.561 Y112.444 E0.46478
G1 X67.556 Y93.439 E1.81628
G1 X67.556 Y86.561 E0.46476
G1 X88.010 Y66.107 E1.95471
G1 X88.178 Y66.697 F7800.000
G1 X97.767 Y70.668 E0.70135 F2160.000
G1 X97.767 Y81.920 E0.76031
G1 X98.080 Y82.233 E0.02998
G1 X109.332 Y82.233 E0.76031
G1 X113.303 Y91.822 E0.70135
G1 X93.217 Y111.909 E1.91956
G1 X86.783 Y111.909 E0.43479
G1 X68.091 Y93.217 E1.78630
G1 X68.091 Y86.783 E0.43477
G1 X88.135 Y66.739 E1.91553
G1 X88.303 Y67.328 F7800.000
G1 X97.231 Y71.026 E0.65298 F2160.000
G1 X97.231 Y82.455 E0.77232
G1 X97.545 Y82.769 E0.02998
G1 X108.974 Y82.769 E0.77232
G1 X112.672 Y91.697 E0.65298
G1 X92.995 Y111.373 E1.88038
G1 X87.005 Y111.373 E0.40481
G1 X68.627 Y92.995 E1.75631
G1 X68.627 Y87.005 E0.40479
G1 X88.261 Y67.371 E1.87635
G1 X88.429 Y67.960 F7800.000
G1 X96.695 Y71.384 E0.60461 F2160.000
G1 X96.695 Y82.991 E0.78433
G1 X97.009 Y83.305 E0.02998
G1 X108.616 Y83.305 E0.78433
G1 X112.040 Y91.571 E0.60461
G1 X92.774 Y110.837 E1.84121
G1 X87.227 Y110.837 E0.37482
G1 X69.163 Y92.773 E1.72633
G1 X69.163 Y87.227 E0.37480
G1 X88.387 Y68.003 E1.83718
G1 X88.555 Y68.592 F7800.000
G1 X96.160 Y71.742 E0.55624 F2160.000
G1 X96.160 Y83.527 E0.79634
G1 X96.473 Y83.840 E0.02998
G1 X108.258 Y83.840 E0.79634
G1 X111.408 Y91.445 E0.55624
G1 X92.552 Y110.302 E1.80203
G1 X87.449 Y110.302 E0.34484
G1 X69.698 Y92.551 E1.69634
G1 X69.698 Y87.449 E0.34482
G1 X88.512 Y68.635 E1.79800
G1 X88.680 Y69.224 F7800.000
G1 X95.624 Y72.100 E0.50787 F2160.000
G1 X95.624 Y84.062 E0.80835
G1 X95.938 Y84.376 E0.02998
G1 X107.900 Y84.376 E0.80835
G1 X110.776 Y91.320 E0.50788
G1 X92.330 Y109.766 E1.76286
G1 X87.671 Y109.766 E0.31485
G1 X70.234 Y92.330 E1.66636
G1 X70.234 Y87.671 E0.31483
G1 X88.638 Y69.266 E1.75882
G1 X88.806 Y69.856 F7800.000
G1 X95.088 Y72.458 E0.45950 F2160.000
G1 X95.088 Y84.598 E0.82036
G1 X95.402 Y84.912 E0.02998
G1 X107.542 Y84.912 E0.82036
G1 X110.144 Y91.194 E0.45951
G1 X92.108 Y109.230 E1.72368
G1 X87.892 Y109.231 E0.28486
G1 X70.769 Y92.108 E1.63637
G1 X70.769 Y87.892 E0.28485
G1 X88.764 Y69.898 E1.71964
G1 X88.932 Y70.488 F7800.000
G1 X94.553 Y72.816 E0.41114 F2160.000
G1 X94.553 Y85.133 E0.83237
G1 X94.867 Y85.447 E0.02998
G1 X107.184 Y85.447 E0.83237
G1 X109.512 Y91.068 E0.41114
G1 X91.886 Y108.695 E1.68450
G1 X88.114 Y108.695 E0.25488
G1 X71.305 Y91.886 E1.60639
G1 X71.305 Y88.114 E0.25487
G1 X88.889 Y70.530 E1.68047
G1 X89.058 Y71.119 F7800.000
G1 X94.017 Y73.174 E0.36277 F2160.000
G1 X94.017 Y85.669 E0.84438
G1 X94.331 Y85.983 E0.02998
G1 X106.826 Y85.983 E0.84438
G1 X108.881 Y90.943 E0.36277
G1 X91.664 Y108.159 E1.64533
G1 X88.336 Y108.159 E0.22489
G1 X71.841 Y91.664 E1.57640
G1 X71.841 Y88.336 E0.22488
G1 X89.015 Y71.162 E1.64129
G1 X89.183 Y71.751 F7800.000
G1 X93.482 Y73.532 E0.31440 F2160.000
G1 X93.482 Y86.205 E0.85639
G1 X93.795 Y86.518 E0.02998
G1 X106.468 Y86.518 E0.85639
G1 X108.249 Y90.817 E0.31440
G1 X91.442 Y107.624 E1.60615
G1 X88.558 Y107.624 E0.19491
G1 X72.376 Y91.442 E1.54642
G1 X72.376 Y88.558 E0.19490
G1 X89.141 Y71.794 E1.60211
G1 X89.309 Y72.383 F7800.000
G1 X92.946 Y73.889 E0.26603 F2160.000
G1 X92.946 Y86.740 E0.86840
G1 X93.260 Y87.054 E0.02998
G1 X106.111 Y87.054 E0.86840
G1 X107.617 Y90.691 E0.26603
G1 X91.220 Y107.088 E1.56698
G1 X88.780 Y107.088 E0.16492
G1 X72.912 Y91.220 E1.51643
G1 X72.912 Y88.780 E0.16491
G1 X89.266 Y72.425 E1.56293
G1 X89.435 Y73.015 F7800.000
G1 X92.410 Y74.247 E0.21766 F2160.000
G1 X92.410 Y87.276 E0.88041
G1 X92.724 Y87.590 E0.02998
G1 X105.753 Y87.590 E0.88041
G1 X106.985 Y90.566 E0.21766
G1 X90.998 Y106.552 E1.52780
G1 X89.002 Y106.552 E0.13494
G1 X73.448 Y90.998 E1.48645
G1 X73.448 Y89.002 E0.13493
G1 X89.392 Y73.057 E1.52376
G1 X89.560 Y73.647 F7800.000
G1 X91.875 Y74.605 E0.16929 F2160.000
G1 X91.875 Y87.812 E0.89242
G1 X92.188 Y88.125 E0.02998
G1 X105.395 Y88.125 E0.89242
G1 X106.353 Y90.440 E0.16929
G1 X90.777 Y106.017 E1.48863
G1 X89.224 Y106.017 E0.10495
G1 X73.983 Y90.776 E1.45646
G1 X73.983 Y89.223 E0.10494
G1 X89.518 Y73.689 E1.48458
G1 X89.686 Y74.278 F7800.000
G1 X91.339 Y74.963 E0.12092 F2160.000
G1 X91.339 Y88.347 E0.90443
G1 X91.653 Y88.661 E0.02998
G1 X105.037 Y88.661 E0.90443
G1 X105.722 Y90.314 E0.12092
G1 X90.555 Y105.481 E1.44945
G1 X89.445 Y105.481 E0.07496
G1 X74.519 Y90.555 E1.42648
G1 X74.519 Y89.445 E0.07496
G1 X89.643 Y74.321 E1.44540
G1 X89.812 Y74.910 F7800.000
G1 X90.803 Y75.321 E0.07255 F2160.000
G1 X90.803 Y88.883 E0.91644
G1 X91.117 Y89.197 E0.02998
G1 X104.679 Y89.197 E0.91644
G1 X105.090 Y90.188 E0.07255
G1 X90.333 Y104.946 E1.41027
G1 X89.667 Y104.946 E0.04498
G1 X75.054 Y90.333 E1.39649
G1 X75.054 Y89.667 E0.04498
G1 X89.769 Y74.953 E1.40622
G1 X89.937 Y75.542 F7800.000
G1 X90.268 Y75.679 E0.02418 F2160.000
G1 X90.268 Y89.418 E0.92845
G1 X90.582 Y89.732 E0.02998
G1 X104.321 Y89.732 E0.92845
G1 X104.458 Y90.063 E0.02418
G1 X90.111 Y104.410 E1.37110
G1 X89.889 Y104.410 E0.01499
G1 X75.590 Y90.111 E1.36651
G1 X75.590 Y89.889 E0.01499
G1 X89.895 Y75.584 E1.36705
G1 F6240
G1 X90.268 Y75.679 E-0.21093
G1 F6240
G1 X90.268 Y77.547 E-1.02407
G1 E-0.06500 F3600.00000
G1 X89.700 Y90.300 F7800.000
G1 E1.30000 F3600.00000
G1 X103.418 Y90.300 E0.92699 F1458.000
G1 X90.000 Y103.718 E1.28230
G1 X76.282 Y90.000 E1.31097
G1 X89.700 Y76.582 E1.28230
G1 X89.700 Y90.240 E0.92294
G1 X95.513 Y97.802 F7800.000
G1 X82.198 Y84.487 E1.29582 F1980.000
G1 X81.813 Y84.872 E0.03754
G1 X95.128 Y98.187 E1.29582
G1 X94.742 Y98.573 E0.03754
G1 X81.427 Y85.258 E1.29582
G1 X81.041 Y85.644 E0.03754
G1 X94.356 Y98.959 E1.29582
G1 X93.971 Y99.344 E0.03754
G1 X80.656 Y86.029 E1.29582
G1 X80.270 Y86.415 E0.03754
G1 X93.585 Y99.730 E1.29582
G1 X93.199 Y100.116 E0.03754
G1 X79.884 Y86.801 E1.29582
G1 X79.498 Y87.187 E0.03754
G1 X92.813 Y100.502 E1.29582
G1 X92.428 Y100.887 E0.03754
G1 X79.113 Y87.572 E1.29582
G1 X78.727 Y87.958 E0.03754
G1 X92.042 Y101.273 E1.29582
G1 X91.656 Y101.659 E0.03754
G1 X78.341 Y88.344 E1.29582
G1 X77.956 Y88.729 E0.03754
G1 X91.271 Y102.044 E1.29582
G1 X90.885 Y102.430 E0.03754
G1 X77.570 Y89.115 E1.29582
G1 X77.184 Y89.501 E0.03754
G1 X90.499 Y102.816 E1.29582
G1 X90.114 Y103.201 E0.03754
G1 X76.799 Y89.886 E1.29582
G1 X89.388 Y77.792 F7800.000
G1 X89.141 Y77.544 E0.02406 F1980.000
G1 X88.755 Y77.930 E0.03754
G1 X89.388 Y78.563 E0.06160
G1 X89.388 Y79.334 E0.05308
G1 X88.369 Y78.316 E0.09914
G1 X87.984 Y78.701 E0.03754
G1 X89.388 Y80.106 E0.13667
G1 X89.388 Y80.877 E0.05308
G1 X87.598 Y79.087 E0.17421
G1 X87.212 Y79.473 E0.03754
G1 X89.388 Y81.648 E0.21174
G1 X89.388 Y82.420 E0.05308
G1 X86.827 Y79.858 E0.24928
G1 X86.441 Y80.244 E0.03754
G1 X89.388 Y83.191 E0.28681
G1 X89.388 Y83.963 E0.05308
G1 X86.055 Y80.630 E0.32435
G1 X85.670 Y81.015 E0.03754
G1 X89.388 Y84.734 E0.36188
G1 X89.388 Y85.505 E0.05308
G1 X85.284 Y81.401 E0.39942
G1 X84.898 Y81.787 E0.03754
G1 X89.388 Y86.277 E0.43696
G1 X89.388 Y87.048 E0.05308
G1 X84.512 Y82.173 E0.47449
G1 X84.127 Y82.558 E0.03754
G1 X89.388 Y87.819 E0.51203
G1 X89.388 Y88.591 E0.05308
G1 X83.741 Y82.944 E0.54956
G1 X83.355 Y83.330 E0.03754
G1 X89.388 Y89.362 E0.58710
G1 X89.388 Y90.134 E0.05308
G1 X82.970 Y83.715 E0.62463
G1 X82.584 Y84.101 E0.03754
G1 X95.899 Y97.416 E1.29582
G1 X96.285 Y97.030 E0.03754
G1 X89.866 Y90.612 E0.62463
G1 X90.638 Y90.612 E0.05308
G1 X96.670 Y96.645 E0.58710
G1 X97.056 Y96.259 E0.03754
G1 X91.409 Y90.612 E0.54956
G1 X92.181 Y90.612 E0.05308
G1 X97.442 Y95.873 E0.51203
G1 X97.827 Y95.488 E0.03754
G1 X92.952 Y90.612 E0.47449
G1 X93.723 Y90.612 E0.05308
G1 X98.213 Y95.102 E0.43696
G1 X98.599 Y94.716 E0.03754
G1 X94.495 Y90.612 E0.39942
G1 X95.266 Y90.612 E0.05308
G1 X98.985 Y94.330 E0.36188
G1 X99.370 Y93.945 E0.03754
G1 X96.037 Y90.612 E0.32435
G1 X96.809 Y90.612 E0.05308
G1 X99.756 Y93.559 E0.28681
G1 X100.142 Y93.173 E0.03754
G1 X97.580 Y90.612 E0.24928
G1 X98.352 Y90.612 E0.05308
G1 X100.527 Y92.788 E0.21174
G1 X100.913 Y92.402 E0.03754
G1 X99.123 Y90.612 E0.17421
G1 X99.894 Y90.612 E0.05308
G1 X101.299 Y92.016 E0.13667
G1 X101.684 Y91.631 E0.03754
G1 X100.666 Y90.612 E0.09914
G1 X101.437 Y90.612 E0.05308
G1 X102.070 Y91.245 E0.06160
G1 X102.456 Y90.859 E0.03754
G1 X102.208 Y90.612 E0.02406
M106 S255
M104 S210 ; set temperature
M140 S50 ; wait for bed temperature to be reached
G1 F6240
G1 X102.456 Y90.859 E-0.19166
G1 F6240
G1 X102.070 Y91.245 E-0.29895
G1 F6240
G1 X101.437 Y90.612 E-0.49061
G1 F6240
G1 X100.974 Y90.612 E-0.25379
G1 E-0.06500 F3600.00000
G1 Z0.500 F7800.000
G1 X89.800 Y90.200 F7800.000
G1 E1.30000 F3600.00000
G1 X103.659 Y90.200 E0.41624 F1209.758
G1 X90.000 Y103.859 E0.58016
G1 X76.141 Y90.000 E0.58866
G1 X89.800 Y76.341 E0.58016
G1 X89.800 Y90.140 E0.41444
G1 X89.494 Y90.051 F7800.000
G1 X83.034 Y96.510 E0.49490 F1642.881
G1 X82.579 Y96.055 E0.03490
G1 X89.494 Y89.140 E0.52980
G1 X89.494 Y88.229 E0.04936
G1 X82.123 Y95.599 E0.56470
G1 X81.668 Y95.144 E0.03490
G1 X89.494 Y87.318 E0.59960
G1 X89.494 Y86.407 E0.04936
G1 X81.213 Y94.688 E0.63450
G1 X80.757 Y94.233 E0.03490
G1 X89.494 Y85.496 E0.66940
G1 X89.494 Y84.585 E0.04936
G1 X80.302 Y93.777 E0.70430
G1 X79.846 Y93.322 E0.03490
G1 X89.494 Y83.674 E0.73920
G1 X89.494 Y82.763 E0.04936
G1 X79.391 Y92.866 E0.77410
G1 X78.935 Y92.411 E0.03490
G1 X89.494 Y81.852 E0.80900
G1 X89.494 Y80.941 E0.04936
G1 X78.480 Y91.955 E0.84389
G1 X78.024 Y91.500 E0.03490
G1 X89.494 Y80.030 E0.87879
G1 X89.494 Y79.119 E0.04936
G1 X77.569 Y91.044 E0.91369
G1 X77.113 Y90.589 E0.03490
G1 X89.494 Y78.208 E0.94859
G1 X89.473 Y77.317 E0.04828
G1 X76.658 Y90.133 E0.98196
G1 X89.949 Y90.506 F7800.000
G1 X83.490 Y96.966 E0.49490 F1642.881
G1 X83.945 Y97.421 E0.03490
G1 X90.860 Y90.506 E0.52980
G1 X91.771 Y90.506 E0.04936
G1 X84.401 Y97.876 E0.56470
G1 X84.856 Y98.332 E0.03490
G1 X92.682 Y90.506 E0.59960
G1 X93.593 Y90.506 E0.04936
G1 X85.312 Y98.787 E0.63450
G1 X85.767 Y99.243 E0.03490
G1 X94.504 Y90.506 E0.66940
G1 X95.415 Y90.506 E0.04936
G1 X86.223 Y99.698 E0.70429
G1 X86.678 Y100.154 E0.03490
G1 X96.326 Y90.506 E0.73919
G1 X97.237 Y90.506 E0.04936
G1 X87.134 Y100.609 E0.77409
G1 X87.589 Y101.065 E0.03490
G1 X98.148 Y90.506 E0.80899
G1 X99.059 Y90.506 E0.04936
G1 X88.045 Y101.520 E0.84389
G1 X88.500 Y101.976 E0.03490
G1 X99.970 Y90.506 E0.87879
G1 X100.881 Y90.506 E0.04936
G1 X88.956 Y102.431 E0.91369
G1 X89.411 Y102.887 E0.03490
G1 X101.792 Y90.506 E0.94859
G1 X102.683 Y90.527 E0.04828
G1 X89.867 Y103.342 E0.98196
G1 F6240
G1 X91.460 Y101.749 E-1.23500
G1 E-0.06500 F3600.00000
G1 Z0.700 F7800.000
G1 X89.800 Y90.200 F7800.000
G1 E1.30000 F3600.00000
G1 X103.659 Y90.200 E0.41624 F1234.904
G1 X90.000 Y103.859 E0.58016
G1 X76.141 Y90.000 E0.58866
G1 X89.800 Y76.341 E0.58016
G1 X89.800 Y90.140 E0.41444
G1 X95.512 Y97.964 F7800.000
G1 X82.036 Y84.488 E1.01597 F1677.030
G1 X81.588 Y84.937 E0.03379
G1 X95.063 Y98.412 E1.01597
G1 X94.615 Y98.860 E0.03379
G1 X81.140 Y85.385 E1.01597
G1 X80.691 Y85.833 E0.03379
G1 X94.167 Y99.309 E1.01597
G1 X93.719 Y99.757 E0.03379
G1 X80.243 Y86.281 E1.01597
G1 X79.795 Y86.729 E0.03379
G1 X93.271 Y100.205 E1.01597
G1 X92.822 Y100.653 E0.03379
G1 X79.347 Y87.178 E1.01597
G1 X78.899 Y87.626 E0.03379
G1 X92.374 Y101.101 E1.01597
G1 X91.926 Y101.550 E0.03379
G1 X78.450 Y88.074 E1.01597
G1 X78.002 Y88.522 E0.03379
G1 X91.478 Y101.998 E1.01597
G1 X91.030 Y102.446 E0.03379
G1 X77.554 Y88.970 E1.01597
G1 X77.106 Y89.419 E0.03379
G1 X90.581 Y102.894 E1.01597
G1 X90.133 Y103.342 E0.03379
G1 X76.658 Y89.867 E1.01597
G1 X89.494 Y77.604 F7800.000
G1 X89.207 Y77.317 E0.02161 F1677.030
G1 X88.759 Y77.766 E0.03379
G1 X89.494 Y78.500 E0.05540
G1 X89.494 Y79.397 E0.04779
G1 X88.311 Y78.214 E0.08919
G1 X87.862 Y78.662 E0.03379
G1 X89.494 Y80.293 E0.12298
G1 X89.494 Y81.190 E0.04779
G1 X87.414 Y79.110 E0.15677
G1 X86.966 Y79.558 E0.03379
G1 X89.494 Y82.086 E0.19056
G1 X89.494 Y82.982 E0.04779
G1 X86.518 Y80.007 E0.22435
G1 X86.070 Y80.455 E0.03379
G1 X89.494 Y83.879 E0.25814
G1 X89.494 Y84.775 E0.04779
G1 X85.621 Y80.903 E0.29193
G1 X85.173 Y81.351 E0.03379
G1 X89.494 Y85.671 E0.32572
G1 X89.494 Y86.568 E0.04779
G1 X84.725 Y81.799 E0.35951
G1 X84.277 Y82.247 E0.03379
G1 X89.494 Y87.464 E0.39330
G1 X89.494 Y88.361 E0.04779
G1 X83.829 Y82.696 E0.42709
G1 X83.380 Y83.144 E0.03379
G1 X89.494 Y89.257 E0.46088
G1 X89.494 Y90.153 E0.04779
G1 X82.932 Y83.592 E0.49467
G1 X82.484 Y84.040 E0.03379
G1 X95.960 Y97.516 E1.01597
G1 X96.408 Y97.068 E0.03379
G1 X89.847 Y90.506 E0.49467
G1 X90.743 Y90.506 E0.04779
G1 X96.856 Y96.620 E0.46088
G1 X97.304 Y96.171 E0.03379
G1 X91.639 Y90.506 E0.42709
G1 X92.536 Y90.506 E0.04779
G1 X97.752 Y95.723 E0.39330
G1 X98.201 Y95.275 E0.03379
G1 X93.432 Y90.506 E0.35951
G1 X94.329 Y90.506 E0.04779
G1 X98.649 Y94.827 E0.32572
G1 X99.097 Y94.379 E0.03379
G1 X95.225 Y90.506 E0.29193
G1 X96.121 Y90.506 E0.04779
G1 X99.545 Y93.930 E0.25814
G1 X99.993 Y93.482 E0.03379
G1 X97.018 Y90.506 E0.22435
G1 X97.914 Y90.506 E0.04779
G1 X100.442 Y93.034 E0.19056
G1 X100.890 Y92.586 E0.03379
G1 X98.810 Y90.506 E0.15677
G1 X99.707 Y90.506 E0.04779
G1 X101.338 Y92.138 E0.12298
G1 X101.786 Y91.689 E0.03379
G1 X100.603 Y90.506 E0.08919
G1 X101.500 Y90.506 E0.04779
G1 X102.234 Y91.241 E0.05540
G1 X102.683 Y90.793 E0.03379
G1 X102.396 Y90.506 E0.02161
G1 F6240
G1 X102.683 Y90.793 E-0.22214
G1 F6240
G1 X102.234 Y91.241 E-0.34739
G1 F6240
G1 X101.500 Y90.506 E-0.56953
G1 F6240
G1 X101.325 Y90.506 E-0.09594
G1 E-0.06500 F3600.00000
G1 Z0.900 F7800.000
G1 X89.800 Y90.200 F7800.000
G1 E1.30000 F3600.00000
G1 X103.659 Y90.200 E0.41624 F900.000
G1 X90.000 Y103.859 E0.58016
G1 X76.141 Y90.000 E0.58866
G1 X89.800 Y76.341 E0.58016
G1 X89.800 Y90.140 E0.41444
G1 X89.340 Y90.660 F7800.000
G1 X95.726 Y90.660 E0.33749 F900.000
G1 X96.472 Y93.444 E0.15232
G1 X92.796 Y97.120 E0.27478
G1 X88.825 Y96.056 E0.21727
G1 X85.836 Y99.045 E0.22336
G1 X85.392 Y98.601 E0.03320
G1 X88.380 Y95.612 E0.22336
G1 X87.316 Y91.641 E0.21727
G1 X89.340 Y89.617 E0.15127
G1 X89.340 Y90.660 E0.05511
G1 X89.040 Y83.104 F7800.000
G1 X89.340 Y82.804 E0.02242 F900.000
